src/svg/arrows/top-in.svg

<svg xmlns="http://www.w3.org/2000/svg" viewBox="0 0 24 24">
  <g stroke="#000">
    <path fill="none" stroke-miterlimit="10" d="M14 9.875l-.986-3.993-3.985.96"/>
    <path d="M2.5 2c-.276 0-.5.223-.5.5 0 .275.224.5.5.5s.5-.225.5-.5c0-.277-.224-.5-.5-.5zM2.5 4c-.276 0-.5.223-.5.5 0 .275.224.5.5.5s.5-.225.5-.5c0-.277-.224-.5-.5-.5zM2.5 6c-.276 0-.5.223-.5.5 0 .275.224.5.5.5s.5-.225.5-.5c0-.277-.224-.5-.5-.5zM2.5 8c-.276 0-.5.223-.5.5 0 .275.224.5.5.5s.5-.225.5-.5c0-.277-.224-.5-.5-.5zM22.5 2c-.276 0-.5.223-.5.5 0 .275.224.5.5.5s.5-.225.5-.5c0-.277-.224-.5-.5-.5zM22.5 4c-.276 0-.5.223-.5.5 0 .275.224.5.5.5s.5-.225.5-.5c0-.277-.224-.5-.5-.5zM22.5 6c-.276 0-.5.223-.5.5 0 .275.224.5.5.5s.5-.225.5-.5c0-.277-.224-.5-.5-.5zM22.5 8c-.276 0-.5.223-.5.5 0 .275.224.5.5.5s.5-.225.5-.5c0-.277-.224-.5-.5-.5zM2.5 10c-.276 0-.5.223-.5.5 0 .275.224.5.5.5s.5-.225.5-.5c0-.277-.224-.5-.5-.5zM22.5 10c-.276 0-.5.223-.5.5 0 .275.224.5.5.5s.5-.225.5-.5c0-.277-.224-.5-.5-.5zM2.5 0c-.276 0-.5.223-.5.5 0 .275.224.5.5.5S3 .775 3 .5c0-.277-.224-.5-.5-.5zM4.5 0c-.276 0-.5.223-.5.5 0 .275.224.5.5.5S5 .775 5 .5c0-.277-.224-.5-.5-.5zM6.5 0c-.276 0-.5.223-.5.5 0 .275.224.5.5.5S7 .775 7 .5c0-.277-.224-.5-.5-.5zM8.5 0c-.276 0-.5.223-.5.5 0 .275.224.5.5.5S9 .775 9 .5c0-.277-.224-.5-.5-.5zM10.5 0c-.276 0-.5.223-.5.5 0 .275.224.5.5.5s.5-.225.5-.5c0-.277-.224-.5-.5-.5zM12.5 0c-.276 0-.5.223-.5.5 0 .275.224.5.5.5s.5-.225.5-.5c0-.277-.224-.5-.5-.5zM14.5 0c-.276 0-.5.223-.5.5 0 .275.224.5.5.5s.5-.225.5-.5c0-.277-.224-.5-.5-.5zM16.5 0c-.276 0-.5.223-.5.5 0 .275.224.5.5.5s.5-.225.5-.5c0-.277-.224-.5-.5-.5zM18.5 0c-.276 0-.5.223-.5.5 0 .275.224.5.5.5s.5-.225.5-.5c0-.277-.224-.5-.5-.5zM20.5 0c-.276 0-.5.223-.5.5 0 .275.224.5.5.5s.5-.225.5-.5c0-.277-.224-.5-.5-.5zM22.5 0c-.276 0-.5.223-.5.5 0 .275.224.5.5.5s.5-.225.5-.5c0-.277-.224-.5-.5-.5z"/>
    <path fill="none" stroke-linecap="round" stroke-linejoin="round" stroke-miterlimit="10" d="M22.5 14.5v9h-20v-9M13.5 12.5h10M.5 12.5h7"/>
    <path fill="none" stroke-linecap="round" stroke-linejoin="round" stroke-miterlimit="10" d="M13.003 5.882C11.445 7.645 10.5 9.962 10.5 12.5c0 2.515.928 4.81 2.46 6.566"/>
  </g>
</svg>

<?xml version="1.0" encoding="utf-8"?>
<!-- Generator: Adobe Illustrator 16.0.3, SVG Export Plug-In . SVG Version: 6.00 Build 0)  -->
<!DOCTYPE svg PUBLIC "-//W3C//DTD SVG 1.1//EN" "http://www.w3.org/Graphics/SVG/1.1/DTD/svg11.dtd">
<svg version="1.1" xmlns="http://www.w3.org/2000/svg" xmlns:xlink="http://www.w3.org/1999/xlink" x="0px" y="0px" width="24px"
	 height="24px" viewBox="0 0 24 24" enable-background="new 0 0 24 24" xml:space="preserve">
<g id="Outline_Icons_1_">
	<g id="Outline_Icons">
		<g>
			<polyline fill="none"   stroke-miterlimit="10" points="
				14,9.875 13.014,5.882 9.029,6.842 			"/>
			<g>
				<g>
					<g>
						<g>
							<path d="M2.5,2C2.224,2,2,2.223,2,2.5C2,2.775,2.224,3,2.5,3S3,2.775,3,2.5C3,2.223,2.776,2,2.5,2L2.5,2z"/>
						</g>
					</g>
				</g>
			</g>
			<g>
				<g>
					<g>
						<g>
							<path d="M2.5,4C2.224,4,2,4.223,2,4.5C2,4.775,2.224,5,2.5,5S3,4.775,3,4.5C3,4.223,2.776,4,2.5,4L2.5,4z"/>
						</g>
					</g>
				</g>
			</g>
			<g>
				<g>
					<g>
						<g>
							<path d="M2.5,6C2.224,6,2,6.223,2,6.5C2,6.775,2.224,7,2.5,7S3,6.775,3,6.5C3,6.223,2.776,6,2.5,6L2.5,6z"/>
						</g>
					</g>
				</g>
			</g>
			<g>
				<g>
					<g>
						<g>
							<path d="M2.5,8C2.224,8,2,8.223,2,8.5C2,8.775,2.224,9,2.5,9S3,8.775,3,8.5C3,8.223,2.776,8,2.5,8L2.5,8z"/>
						</g>
					</g>
				</g>
			</g>
			<g>
				<g>
					<g>
						<g>
							<path d="M22.5,2C22.224,2,22,2.223,22,2.5C22,2.775,22.224,3,22.5,3S23,2.775,23,2.5C23,2.223,22.776,2,22.5,2L22.5,2z"/>
						</g>
					</g>
				</g>
			</g>
			<g>
				<g>
					<g>
						<g>
							<path d="M22.5,4C22.224,4,22,4.223,22,4.5C22,4.775,22.224,5,22.5,5S23,4.775,23,4.5C23,4.223,22.776,4,22.5,4L22.5,4z"/>
						</g>
					</g>
				</g>
			</g>
			<g>
				<g>
					<g>
						<g>
							<path d="M22.5,6C22.224,6,22,6.223,22,6.5C22,6.775,22.224,7,22.5,7S23,6.775,23,6.5C23,6.223,22.776,6,22.5,6L22.5,6z"/>
						</g>
					</g>
				</g>
			</g>
			<g>
				<g>
					<g>
						<g>
							<path d="M22.5,8C22.224,8,22,8.223,22,8.5C22,8.775,22.224,9,22.5,9S23,8.775,23,8.5C23,8.223,22.776,8,22.5,8L22.5,8z"/>
						</g>
					</g>
				</g>
			</g>
			<g>
				<g>
					<g>
						<g>
							<path d="M2.5,10C2.224,10,2,10.223,2,10.5C2,10.775,2.224,11,2.5,11S3,10.775,3,10.5C3,10.223,2.776,10,2.5,10L2.5,10z"/>
						</g>
					</g>
				</g>
			</g>
			<g>
				<g>
					<g>
						<g>
							<path d="M22.5,10c-0.276,0-0.5,0.223-0.5,0.5c0,0.275,0.224,0.5,0.5,0.5s0.5-0.225,0.5-0.5C23,10.223,22.776,10,22.5,10
								L22.5,10z"/>
						</g>
					</g>
				</g>
			</g>
			<g>
				<g>
					<g>
						<g>
							<path d="M2.5,0C2.224,0,2,0.223,2,0.5C2,0.775,2.224,1,2.5,1S3,0.775,3,0.5C3,0.223,2.776,0,2.5,0L2.5,0z"/>
						</g>
					</g>
				</g>
			</g>
			<g>
				<g>
					<g>
						<g>
							<path d="M4.5,0C4.224,0,4,0.223,4,0.5C4,0.775,4.224,1,4.5,1S5,0.775,5,0.5C5,0.223,4.776,0,4.5,0L4.5,0z"/>
						</g>
					</g>
				</g>
			</g>
			<g>
				<g>
					<g>
						<g>
							<path d="M6.5,0C6.224,0,6,0.223,6,0.5C6,0.775,6.224,1,6.5,1S7,0.775,7,0.5C7,0.223,6.776,0,6.5,0L6.5,0z"/>
						</g>
					</g>
				</g>
			</g>
			<g>
				<g>
					<g>
						<g>
							<path d="M8.5,0C8.224,0,8,0.223,8,0.5C8,0.775,8.224,1,8.5,1S9,0.775,9,0.5C9,0.223,8.776,0,8.5,0L8.5,0z"/>
						</g>
					</g>
				</g>
			</g>
			<g>
				<g>
					<g>
						<g>
							<path d="M10.5,0C10.224,0,10,0.223,10,0.5C10,0.775,10.224,1,10.5,1S11,0.775,11,0.5C11,0.223,10.776,0,10.5,0L10.5,0z"/>
						</g>
					</g>
				</g>
			</g>
			<g>
				<g>
					<g>
						<g>
							<path d="M12.5,0C12.224,0,12,0.223,12,0.5C12,0.775,12.224,1,12.5,1S13,0.775,13,0.5C13,0.223,12.776,0,12.5,0L12.5,0z"/>
						</g>
					</g>
				</g>
			</g>
			<g>
				<g>
					<g>
						<g>
							<path d="M14.5,0C14.224,0,14,0.223,14,0.5C14,0.775,14.224,1,14.5,1S15,0.775,15,0.5C15,0.223,14.776,0,14.5,0L14.5,0z"/>
						</g>
					</g>
				</g>
			</g>
			<g>
				<g>
					<g>
						<g>
							<path d="M16.5,0C16.224,0,16,0.223,16,0.5C16,0.775,16.224,1,16.5,1S17,0.775,17,0.5C17,0.223,16.776,0,16.5,0L16.5,0z"/>
						</g>
					</g>
				</g>
			</g>
			<g>
				<g>
					<g>
						<g>
							<path d="M18.5,0C18.224,0,18,0.223,18,0.5C18,0.775,18.224,1,18.5,1S19,0.775,19,0.5C19,0.223,18.776,0,18.5,0L18.5,0z"/>
						</g>
					</g>
				</g>
			</g>
			<g>
				<g>
					<g>
						<g>
							<path d="M20.5,0C20.224,0,20,0.223,20,0.5C20,0.775,20.224,1,20.5,1S21,0.775,21,0.5C21,0.223,20.776,0,20.5,0L20.5,0z"/>
						</g>
					</g>
				</g>
			</g>
			<g>
				<g>
					<g>
						<g>
							<path d="M22.5,0C22.224,0,22,0.223,22,0.5C22,0.775,22.224,1,22.5,1S23,0.775,23,0.5C23,0.223,22.776,0,22.5,0L22.5,0z"/>
						</g>
					</g>
				</g>
			</g>
			<polyline fill="none"  stroke-linecap="round" stroke-linejoin="round" stroke-miterlimit="10" points="
				22.5,14.5 22.5,23.5 2.5,23.5 2.5,14.5 			"/>

				<line fill="none"  stroke-linecap="round" stroke-linejoin="round" stroke-miterlimit="10" x1="13.5" y1="12.5" x2="23.5" y2="12.5"/>

				<line fill="none"  stroke-linecap="round" stroke-linejoin="round" stroke-miterlimit="10" x1="0.5" y1="12.5" x2="7.5" y2="12.5"/>
			<path fill="none"  stroke-linecap="round" stroke-linejoin="round" stroke-miterlimit="10" d="M13.003,5.882
				C11.445,7.645,10.5,9.961,10.5,12.5c0,2.515,0.928,4.809,2.459,6.566"/>
		</g>
	</g>
</g>
</svg>
